TCanvas/fit3_8.svg

<svg xmlns="http://www.w3.org/2000/svg" viewBox="0 0 1200 800" preserveAspectRatio="none" width="1200" height="800">
 <path d="M0,0H1200V800H0Z" style="fill: white;"></path>
 <g>
  <g transform="translate(120,80)">
   <path d="M0,0H960V640H0Z" style="fill: white; stroke: black; stroke-width: 1;"></path>
   <svg x="0" y="0" overflow="hidden" width="960" height="640" viewBox="0 0 960 640">
    <g>
     <path d="M0,639h38v1h10v-1h10v-1h9v-1h19v-1h10v2h10v-3h9v-3h10v2h9v-3h10v-7h10v-1h9v-3h10v-6h9v-8h10v-7h19v-6h10v-22h9v-14h10v-9h10v-14h9v-1h10v-21h9v-24h10v-24h10v-15h9v-35h10v-48h9v-5h10v-23h10v-57h19v-38h9v-48h10v-16h10v-2h9v1h10v-56h9v-29h10v-11h10v-8h9v-40h10v32h9v-36h10v12h10v-3h9v16h10v-23h9v62h10v-5h10v2h9v60h10v15h9v37h10v6h10v56h9v14h10v15h9v35h10v47h10v25h9v20h10v27h9v8h10v7h10v27h9v26h10v37h9v-3h10v21h10v10h9v8h10v10h9v9h10v6h10v-1h9v7h10v1h9v7h10v4h10v-1h9v3h10v3h9v-1h10v1h10v-2h9v2h10v2h9v1h10v-2h19v1h10v1h19" style="stroke-linejoin: miter; stroke: #00009a; stroke-width: 1; fill: none;"></path>
    </g>
    <g>
     <path d="M240,559.23C240.27,558.85,244.28,553.3,244.8,552.55S249.12,546.21,249.6,545.48S253.95,538.71,254.4,538S258.78,530.8,259.2,530.1S263.62,522.46,264,521.78S268.44,513.7,268.8,513.03S273.27,504.5,273.6,503.86S278.09,494.88,278.4,494.25S282.91,484.83,283.2,484.22S287.73,474.36,288,473.76S292.55,463.48,292.8,462.89S297.36,452.18,297.6,451.61S302.18,440.49,302.4,439.93S306.99,428.41,307.2,427.87S311.8,415.97,312,415.44S316.61,403.19,316.8,402.67S321.41,390.08,321.6,389.56S326.22,376.67,326.4,376.16S331.03,362.99,331.2,362.49S335.83,349.07,336,348.58S340.64,334.94,340.8,334.46S345.44,320.65,345.6,320.17S350.24,306.22,350.4,305.75S355.04,291.71,355.2,291.23S359.84,277.15,360,276.67S364.64,262.59,364.8,262.11S369.44,248.07,369.6,247.6S374.24,233.66,374.4,233.18S379.04,219.39,379.2,218.9S383.83,205.32,384,204.83S388.62,191.5,388.8,191S393.42,177.99,393.6,177.48S398.21,164.84,398.4,164.32S403,152.1,403.2,151.56S407.78,139.82,408,139.27S412.56,128.06,412.8,127.49S417.34,116.86,417.6,116.27S422.11,106.28,422.4,105.66S426.88,96.36,427.2,95.72S431.64,87.15,432,86.48S436.38,78.68,436.8,77.98S441.12,71,441.6,70.27S445.83,64.14,446.4,63.37S450.52,58.12,451.2,57.33S455.18,52.97,456,52.17S459.82,48.69,460.8,47.91S464.42,45.28,465.6,44.58S469.02,42.74,470.4,42.19S473.66,41.06,475.2,40.75S478.4,40.27,480,40.27S483.26,40.45,484.8,40.76S488.22,41.65,489.6,42.2S493.22,43.89,494.4,44.59S498.22,47.15,499.2,47.93S503.19,51.39,504,52.19S508.12,56.56,508.8,57.35S513.03,62.63,513.6,63.4S517.92,69.56,518.4,70.29S522.78,77.31,523.2,78.01S527.64,85.84,528,86.51S532.48,95.12,532.8,95.76S537.31,105.09,537.6,105.71S542.14,115.72,542.4,116.31S546.96,126.96,547.2,127.53S551.78,138.77,552,139.32S556.6,151.08,556.8,151.61S561.41,163.85,561.6,164.37S566.22,177.03,566.4,177.54S571.02,190.56,571.2,191.06S575.83,204.39,576,204.89S580.64,218.48,580.8,218.96S585.44,232.75,585.6,233.24S590.24,247.18,590.4,247.66S595.04,261.69,595.2,262.17S599.84,276.26,600,276.73S604.64,290.81,604.8,291.29S609.44,305.33,609.6,305.8S614.24,319.74,614.4,320.23S619.04,334.03,619.2,334.52S623.83,348.14,624,348.63S628.63,362.05,628.8,362.55S633.42,375.71,633.6,376.22S638.21,389.11,638.4,389.62S643.01,402.2,643.2,402.72S647.8,414.96,648,415.49S652.59,427.38,652.8,427.92S657.38,439.42,657.6,439.98S662.16,451.09,662.4,451.66S666.95,462.35,667.2,462.94S671.73,473.21,672,473.81S676.51,483.65,676.8,484.26S681.29,493.66,681.6,494.29S686.07,503.24,686.4,503.89S690.84,512.4,691.2,513.07S695.62,521.13,696,521.81S700.38,529.43,700.8,530.13S705.15,537.31,705.6,538.03S709.91,544.77,710.4,545.51S714.68,551.83,715.2,552.58S719.73,558.87,720,559.25" style="fill: none; stroke: red; stroke-width: 2;"></path>
    </g>
   </svg>
   <g>
    <g transform="translate(0,640)">
     <path d="M0,0h960M0,-24v24m24,-12v12m24,-12v12m24,-12v12m24,-12v12m24,-24v24m24,-12v12m24,-12v12m24,-12v12m24,-12v12m24,-24v24m24,-12v12m24,-12v12m24,-12v12m24,-12v12m24,-24v24m24,-12v12m24,-12v12m24,-12v12m24,-12v12m24,-24v24m24,-12v12m24,-12v12m24,-12v12m24,-12v12m24,-24v24m24,-12v12m24,-12v12m24,-12v12m24,-12v12m24,-24v24m24,-12v12m24,-12v12m24,-12v12m24,-12v12m24,-24v24m24,-12v12m24,-12v12m24,-12v12m24,-12v12m24,-24v24" style="stroke: black; stroke-width: 1;"></path>
     <g font-family="Arial" font-size="48" space="preserve" fill="black" text-anchor="middle">
      <text dy=".8em" transform="translate(0,6)">
       -4
      </text>
      <text dy=".8em" transform="translate(120,6)">
       -3
      </text>
      <text dy=".8em" transform="translate(240,6)">
       -2
      </text>
      <text dy=".8em" transform="translate(360,6)">
       -1
      </text>
      <text dy=".8em" transform="translate(480,6)">
       0
      </text>
      <text dy=".8em" transform="translate(600,6)">
       1
      </text>
      <text dy=".8em" transform="translate(720,6)">
       2
      </text>
      <text dy=".8em" transform="translate(840,6)">
       3
      </text>
      <text dy=".8em" transform="translate(960,6)">
       4
      </text>
     </g>
    </g>
    <g>
     <path d="M0,0v640M36,640h-36m18,-15h-18m18,-15h-18m18,-15h-18m18,-15h-18m36,-15h-36m18,-15h-18m18,-15h-18m18,-15h-18m18,-15h-18m36,-15h-36m18,-15h-18m18,-15h-18m18,-15h-18m18,-15h-18m36,-15h-36m18,-16h-18m18,-15h-18m18,-15h-18m18,-15h-18m36,-15h-36m18,-15h-18m18,-15h-18m18,-15h-18m18,-15h-18m36,-15h-36m18,-15h-18m18,-15h-18m18,-15h-18m18,-15h-18m36,-15h-36m18,-15h-18m18,-15h-18m18,-15h-18m18,-15h-18m36,-15h-36m18,-15h-18m18,-15h-18m18,-15h-18m18,-15h-18m36,-15h-36m18,-15h-18m18,-15h-18" style="stroke: black; stroke-width: 1;"></path>
     <g font-family="Arial" font-size="48" space="preserve" fill="black" text-anchor="end">
      <text dy=".4em" transform="translate(-4,640)">
       0
      </text>
      <text dy=".4em" transform="translate(-4,565)">
       100
      </text>
      <text dy=".4em" transform="translate(-4,490)">
       200
      </text>
      <text dy=".4em" transform="translate(-4,415)">
       300
      </text>
      <text dy=".4em" transform="translate(-4,339)">
       400
      </text>
      <text dy=".4em" transform="translate(-4,264)">
       500
      </text>
      <text dy=".4em" transform="translate(-4,189)">
       600
      </text>
      <text dy=".4em" transform="translate(-4,114)">
       700
      </text>
      <text dy=".4em" transform="translate(-4,39)">
       800
      </text>
     </g>
    </g>
   </g>
  </g>
  <g transform="translate(120,4)" font-family="Arial" font-size="40" space="preserve">
   <text fill="black" text-anchor="middle" dy=".8em" transform="translate(480)">
    This is the px distribution
   </text>
  </g>
  <g transform="translate(936,52)" font-family="Arial" font-size="23" space="preserve" fill="black">
   <path d="M0,0H240V128H0Z" style="fill: white; stroke: black; stroke-width: 1;"></path>
   <text text-anchor="middle" dy=".4em" transform="translate(120,16)">
    hpx
   </text>
   <text text-anchor="start" dy=".4em" transform="translate(12,48)">
    Entries
   </text>
   <text text-anchor="end" dy=".4em" transform="translate(228,48)">
    25000
   </text>
   <text text-anchor="start" dy=".4em" transform="translate(12,80)">
    Mean
   </text>
   <text text-anchor="end" dy=".4em" transform="translate(228,80)">
    -0.004011
   </text>
   <text text-anchor="start" dy=".4em" transform="translate(12,112)">
    Std Dev
   </text>
   <text text-anchor="end" dy=".4em" transform="translate(228,112)">
    0.9978
   </text>
   <path d="M0,32h240" style="stroke: black; stroke-width: 1;"></path>
  </g>
 </g>
</svg>

<svg xmlns="http://www.w3.org/2000/svg" viewBox="0 0 1200 800" preserveAspectRatio="none" width="1200" height="800">
 <path d="M0,0H1200V800H0Z" style="fill: white;"></path>
 <g>
  <g transform="translate(120,80)">
   <path d="M0,0H960V640H0Z" style="fill: white; stroke: black; stroke-width: 1;"></path>
   <svg x="0" y="0" overflow="hidden" width="960" height="640" viewBox="0 0 960 640">
    <g>
     <path d="M0,639h38v1h10v-1h10v-1h9v-1h19v-1h10v2h10v-3h9v-3h10v2h9v-3h10v-7h10v-1h9v-3h10v-6h9v-8h10v-7h19v-6h10v-22h9v-14h10v-9h10v-14h9v-1h10v-21h9v-24h10v-24h10v-15h9v-35h10v-48h9v-5h10v-23h10v-57h19v-38h9v-48h10v-16h10v-2h9v1h10v-56h9v-29h10v-11h10v-8h9v-40h10v32h9v-36h10v12h10v-3h9v16h10v-23h9v62h10v-5h10v2h9v60h10v15h9v37h10v6h10v56h9v14h10v15h9v35h10v47h10v25h9v20h10v27h9v8h10v7h10v27h9v26h10v37h9v-3h10v21h10v10h9v8h10v10h9v9h10v6h10v-1h9v7h10v1h9v7h10v4h10v-1h9v3h10v3h9v-1h10v1h10v-2h9v2h10v2h9v1h10v-2h19v1h10v1h19" style="stroke-linejoin: miter; stroke: #00009a; stroke-width: 1; fill: none;"></path>
    </g>
    <g>
     <path d="M240,559.23C240.27,558.85,244.28,553.3,244.8,552.55S249.12,546.21,249.6,545.48S253.95,538.71,254.4,538S258.78,530.8,259.2,530.1S263.62,522.46,264,521.78S268.44,513.7,268.8,513.03S273.27,504.5,273.6,503.86S278.09,494.88,278.4,494.25S282.91,484.83,283.2,484.22S287.73,474.36,288,473.76S292.55,463.48,292.8,462.89S297.36,452.18,297.6,451.61S302.18,440.49,302.4,439.93S306.99,428.41,307.2,427.87S311.8,415.97,312,415.44S316.61,403.19,316.8,402.67S321.41,390.08,321.6,389.56S326.22,376.67,326.4,376.16S331.03,362.99,331.2,362.49S335.83,349.07,336,348.58S340.64,334.94,340.8,334.46S345.44,320.65,345.6,320.17S350.24,306.22,350.4,305.75S355.04,291.71,355.2,291.23S359.84,277.15,360,276.67S364.64,262.59,364.8,262.11S369.44,248.07,369.6,247.6S374.24,233.66,374.4,233.18S379.04,219.39,379.2,218.9S383.83,205.32,384,204.83S388.62,191.5,388.8,191S393.42,177.99,393.6,177.48S398.21,164.84,398.4,164.32S403,152.1,403.2,151.56S407.78,139.82,408,139.27S412.56,128.06,412.8,127.49S417.34,116.86,417.6,116.27S422.11,106.28,422.4,105.66S426.88,96.36,427.2,95.72S431.64,87.15,432,86.48S436.38,78.68,436.8,77.98S441.12,71,441.6,70.27S445.83,64.14,446.4,63.37S450.52,58.12,451.2,57.33S455.18,52.97,456,52.17S459.82,48.69,460.8,47.91S464.42,45.28,465.6,44.58S469.02,42.74,470.4,42.19S473.66,41.06,475.2,40.75S478.4,40.27,480,40.27S483.26,40.45,484.8,40.76S488.22,41.65,489.6,42.2S493.22,43.89,494.4,44.59S498.22,47.15,499.2,47.93S503.19,51.39,504,52.19S508.12,56.56,508.8,57.35S513.03,62.63,513.6,63.4S517.92,69.56,518.4,70.29S522.78,77.31,523.2,78.01S527.64,85.84,528,86.51S532.48,95.12,532.8,95.76S537.31,105.09,537.6,105.71S542.14,115.72,542.4,116.31S546.96,126.96,547.2,127.53S551.78,138.77,552,139.32S556.6,151.08,556.8,151.61S561.41,163.85,561.6,164.37S566.22,177.03,566.4,177.54S571.02,190.56,571.2,191.06S575.83,204.39,576,204.89S580.64,218.48,580.8,218.96S585.44,232.75,585.6,233.24S590.24,247.18,590.4,247.66S595.04,261.69,595.2,262.17S599.84,276.26,600,276.73S604.64,290.81,604.8,291.29S609.44,305.33,609.6,305.8S614.24,319.74,614.4,320.23S619.04,334.03,619.2,334.52S623.83,348.14,624,348.63S628.63,362.05,628.8,362.55S633.42,375.71,633.6,376.22S638.21,389.11,638.4,389.62S643.01,402.2,643.2,402.72S647.8,414.96,648,415.49S652.59,427.38,652.8,427.92S657.38,439.42,657.6,439.98S662.16,451.09,662.4,451.66S666.95,462.35,667.2,462.94S671.73,473.21,672,473.81S676.51,483.65,676.8,484.26S681.29,493.66,681.6,494.29S686.07,503.24,686.4,503.89S690.84,512.4,691.2,513.07S695.62,521.13,696,521.81S700.38,529.43,700.8,530.13S705.15,537.31,705.6,538.03S709.91,544.77,710.4,545.51S714.68,551.83,715.2,552.58S719.73,558.87,720,559.25" style="fill: none; stroke: red; stroke-width: 2;"></path>
    </g>
   </svg>
   <g>
    <g transform="translate(0,640)">
     <path d="M0,0h960M0,-24V0M24,-12V0M48,-12V0M72,-12V0M96,-12V0M120,-24V0M144,-12V0M168,-12V0M192,-12V0M216,-12V0M240,-24V0M264,-12V0M288,-12V0M312,-12V0M336,-12V0M360,-24V0M384,-12V0M408,-12V0M432,-12V0M456,-12V0M480,-24V0M504,-12V0M528,-12V0M552,-12V0M576,-12V0M600,-24V0M624,-12V0M648,-12V0M672,-12V0M696,-12V0M720,-24V0M744,-12V0M768,-12V0M792,-12V0M816,-12V0M840,-24V0M864,-12V0M888,-12V0M912,-12V0M936,-12V0M960,-24V0" style="stroke: black; stroke-width: 1;"></path>
     <g font-family="Arial" font-size="48" space="preserve" fill="black" text-anchor="middle">
      <text dy=".8em" transform="translate(0,6)">
       -4
      </text>
      <text dy=".8em" transform="translate(120,6)">
       -3
      </text>
      <text dy=".8em" transform="translate(240,6)">
       -2
      </text>
      <text dy=".8em" transform="translate(360,6)">
       -1
      </text>
      <text dy=".8em" transform="translate(480,6)">
       0
      </text>
      <text dy=".8em" transform="translate(600,6)">
       1
      </text>
      <text dy=".8em" transform="translate(720,6)">
       2
      </text>
      <text dy=".8em" transform="translate(840,6)">
       3
      </text>
      <text dy=".8em" transform="translate(960,6)">
       4
      </text>
     </g>
    </g>
    <g>
     <path d="M0,0v640M36,640H0M18,625H0M18,610H0M18,595H0M18,580H0M36,565H0M18,550H0M18,535H0M18,520H0M18,505H0M36,490H0M18,475H0M18,460H0M18,445H0M18,430H0M36,415H0M18,399H0M18,384H0M18,369H0M18,354H0M36,339H0M18,324H0M18,309H0M18,294H0M18,279H0M36,264H0M18,249H0M18,234H0M18,219H0M18,204H0M36,189H0M18,174H0M18,159H0M18,144H0M18,129H0M36,114H0M18,99H0M18,84H0M18,69H0M18,54H0M36,39H0M18,24H0M18,9H0" style="stroke: black; stroke-width: 1;"></path>
     <g font-family="Arial" font-size="48" space="preserve" fill="black" text-anchor="end">
      <text dy=".4em" transform="translate(-4,640)">
       0
      </text>
      <text dy=".4em" transform="translate(-4,565)">
       100
      </text>
      <text dy=".4em" transform="translate(-4,490)">
       200
      </text>
      <text dy=".4em" transform="translate(-4,415)">
       300
      </text>
      <text dy=".4em" transform="translate(-4,339)">
       400
      </text>
      <text dy=".4em" transform="translate(-4,264)">
       500
      </text>
      <text dy=".4em" transform="translate(-4,189)">
       600
      </text>
      <text dy=".4em" transform="translate(-4,114)">
       700
      </text>
      <text dy=".4em" transform="translate(-4,39)">
       800
      </text>
     </g>
    </g>
   </g>
  </g>
  <g transform="translate(120,4)" font-family="Arial" font-size="40" space="preserve">
   <text fill="black" text-anchor="middle" dy=".8em" transform="translate(480)">
    This is the px distribution
   </text>
  </g>
  <g transform="translate(936,52)" font-family="Arial" font-size="23" space="preserve" fill="black">
   <path d="M0,0H240V128H0Z" style="fill: white; stroke: black; stroke-width: 1;"></path>
   <text text-anchor="middle" dy=".4em" transform="translate(120,16)">
    hpx
   </text>
   <text text-anchor="start" dy=".4em" transform="translate(12,48)">
    Entries
   </text>
   <text text-anchor="end" dy=".4em" transform="translate(228,48)">
    25000
   </text>
   <text text-anchor="start" dy=".4em" transform="translate(12,80)">
    Mean
   </text>
   <text text-anchor="end" dy=".4em" transform="translate(228,80)">
    -0.004011
   </text>
   <text text-anchor="start" dy=".4em" transform="translate(12,112)">
    Std Dev
   </text>
   <text text-anchor="end" dy=".4em" transform="translate(228,112)">
    0.9978
   </text>
   <path d="M0,32h240" style="stroke: black; stroke-width: 1;"></path>
  </g>
 </g>
</svg>
